!!!COM: Palestrina, Giovanni Perluigi da
!!!OPR: Iste confessor
!!!OTL: Agnus II
**kern	**kern	**kern	**kern	**kern
*Ibass	*Ibass	*Itenor	*Icalto	*Icant
!Bassus 2	!Bassus 1	!Tenor	!Altus	!Cantus
*clefF4	*clefF4	*clefGv2	*clefG2	*clefG2
*k[]	*k[]	*k[]	*k[]	*k[]
*G:mix	*G:mix	*G:mix	*G:mix	*G:mix
*M4/2	*M4/2	*M4/2	*M4/2	*M4/2
=1	=1	=1	=1	=1
1G	0r	1r	0r	0r
1A	.	1c	.	.
=2	=2	=2	=2	=2
2G	0r	2d	1r	1g
2E	.	2c	.	.
1F#	.	1A	2r	1a
.	.	.	[2d	.
=3	=3	=3	=3	=3
4G	1G	1B	2d]	1g
4F	.	.	.	.
4E	.	.	1e	.
4D	.	.	.	.
2C	1A	2c	.	2e
2D	.	2A	2d	2f#
=4	=4	=4	=4	=4
1GG	1.G	1d	4B	2.g
.	.	.	4c	.
.	.	.	2.d	.
.	.	.	.	4f
1C	.	2r	.	2e
.	.	.	4c	.
.	2E	2G	[2c	2c
=5	=5	=5	=5	=5
1r	2F	2A	2c]	1d
.	2G	1G	2B	.
1C	1C	.	1c	2e
.	.	2E	.	[2g
=6	=6	=6	=6	=6
1D	0r	4F	2r	2g]
.	.	4G	.	.
.	.	4A	1A	1f
.	.	4B	.	.
[1C	.	4c	.	.
.	.	4d	.	.
.	.	[2e	2G	2e
=7	=7	=7	=7	=7
2C]	0r	2e]	2A	2c
2BB	.	2d	2B	2d
1AA	.	2c	[1c	2e
.	.	2A	.	2f#
=8	=8	=8	=8	=8
1GG	2r	1d	2c]	0g
.	2G	.	4B	.
.	.	.	4A	.
1r	2G	2r	2B	.
.	2E	[2e	2c	.
=9	=9	=9	=9	=9
1r	1F	2e]	1A	2r
.	.	2d	.	1a
2r	1E	2c	1e	.
[2E	.	2B	.	2g
=10	=10	=10	=10	=10
2E]	2C	2A	1r	2a
2D	2BB	2G	.	2b
2E	1AA	1A	1c	2cc
2F#	.	.	.	2a
=11	=11	=11	=11	=11
4G	2r	2d	1B	1b
4F	.	.	.	.
4E	1E	2G	.	.
4D	.	.	.	.
2C	.	2A	2A	2cc
2BB	2D	2B	2G	[2dd
=12	=12	=12	=12	=12
1AA	2E	1c	2A	4dd]
.	.	.	.	4cc
.	2F#	.	2A	1cc
1GG	1G	1r	1d	.
.	.	.	.	2b
=13	=13	=13	=13	=13
2.AA	2E	2r	1c	0cc
.	1F	1A	.	.
4BB	.	.	.	.
1C	.	.	2r	.
.	2E	2G	[2e	.
=14	=14	=14	=14	=14
1r	2F	2A	2e]	0r
.	2G	2B	2d	.
2r	1C	2c	2.e	.
[2E	.	4G	.	.
.	.	4A	4f	.
=15	=15	=15	=15	=15
2E]	1r	4B	2g	2r
.	.	4c	.	.
2D	.	2d	2f	1a
2.E	2r	2c	1e	.
.	[2E	2B	.	2g
4D	.	.	.	.
=16	=16	=16	=16	=16
2C	2E]	2c	2e	2a
2BB	2D	2d	1g	2b
1AA	2E	1c	.	[1cc
.	2F	.	2f	.
=17	=17	=17	=17	=17
2GG	2G	2r	2e	2cc]
1G	2GG	2G	2d	2b
.	1D	1A	1d	1a
2F#	.	.	.	.
=18	=18	=18	=18	=18
2G	2GG	2B	2r	1g
2GG	1G	2B	1d	.
1D	.	1A	.	1a
.	2F#	.	2d	.
=19	=19	=19	=19	=19
1GG	2G	1B	1d	2r
.	2D	.	.	1dd
1r	1A	2r	1e	.
.	.	2A	.	2cc#
=20	=20	=20	=20	=20
0r	2.G	1B	2r	2dd
.	.	.	1g	2g
.	8F	.	.	.
.	8E	.	.	.
.	1D	2.d	.	1a
.	.	.	2f#	.
.	.	4c	.	.
=21	=21	=21	=21	=21
2r	1E	2B	4g	0g
.	.	.	4f	.
1C	.	2c	4e	.
.	.	.	4d	.
.	1r	2e	2c	.
2BB	.	2d	2d	.
=22	=22	=22	=22	=22
1C	2r	1c	1e	1r
.	1C	.	.	.
1GG	.	2r	1d	1g
.	2BB	2d	.	.
=23	=23	=23	=23	=23
2r	2C	2e	2c	1g
1G	2GG	2d	2B	.
.	1D	2.d	1A	1a
2F#	.	.	.	.
.	.	4c	.	.
=24	=24	=24	=24	=24
2G	2GG	4B	1G	1b
.	.	4A	.	.
2GG	1G	2G	.	.
1D	.	1A	2r	1a
.	2F#	.	2d	.
=25	=25	=25	=25	=25
2GG	2G	1B	2d	1g
1G	2GG	.	2d	.
.	1AA	1A	2.c	2r
2F#	.	.	.	[2cc
.	.	.	4d	.
=26	=26	=26	=26	=26
2G	2GG	2r	4e	2cc]
.	.	.	4f#	.
2GG	1G	2G	2g	2b
2C	.	1A	2e	2cc
2D	2F#	.	2d	[2a
=27	=27	=27	=27	=27
1GG	2G	2B	1d	4a]
.	.	.	.	4g
.	2GG	2B	.	1g
1r	1D	1A	2r	.
.	.	.	2d	2f#
=28	=28	=28	=28	=28
2r	2.E	2G	2B	[0g
1C	.	1c	1e	.
.	4F#	.	.	.
.	1G	.	.	.
2BB	.	2d	2d	.
=29	=29	=29	=29	=29
1C	2r	2e	4c	1g_
.	.	.	4d	.
.	1C	2c	1e	.
1GG	.	1d	.	1g_
.	2BB	.	[2d	.
=30	=30	=30	=30	=30
4C	1C	1e	2d]	0g]
4D	.	.	.	.
4E	.	.	1c	.
4C	.	.	.	.
2.G	1GG	1d	.	.
.	.	.	2B	.
4F	.	.	.	.
=31	=31	=31	=31	=31
4E	0C	0c	0e	[0g
4D	.	.	.	.
2C	.	.	.	.
2.E	.	.	.	.
4F#	.	.	.	.
=32	=32	=32	=32	=32
0G	0GG	0B	0d	0g]
==	==	==	==	==
*-	*-	*-	*-	*-
!!!CDT: 1525/^1526/-1594/2/2
!!!OCY: Italia
!!!AGN: Mass (Paraphrase)
!!!AST: renaissance, vocal
!!!ASW: Hymn
!!!PWK: Masses, Book 5
!!!RNB: Cadence finals: D
!!!YOR: Le Opere Complete, v. 15, p. 72
!!!YOO: Rome, Italy: Fratelli Scalera
!!!END: 1992//
!!!EED: John Miller
!!!YEC: Copyright 2000, John Miller
!!!YEN: United States of America
!!!YEM: Rights to all derivative electronic formats reserved.
!!!YEM: Refer to licensing agreement for further details.
!!!YEM: This file must be accompanied by the licensing agreement.
!!!YEM: A copy of the licensing agreement may be found at http://www.music-cog.ohio-state.edu/HumdrumDatabases/Palestrina/license.txt
!!!EMD: converted to Humdrum by Bret Aarden
